app/dist/common/images/thunder-software-t.svg

<svg height="18" viewBox="0 0 18 18" width="18" xmlns="http://www.w3.org/2000/svg"><path d="m0 0h18v18h-18z" fill="#f0f3fa"/><g fill="#b80c1e"><path d="m5.5 13 2.98-5h.94l.58-1h-4.92l-.58 1h2.5l-3 5z" fill-opacity=".5"/><path d="m5.53 5h9.47l-.53 1h-9.47z"/><path d="m14 7-.5 1h-2.04l-.6 1h1.32c.3 0 .47.3.34.55l-1.52 2.67c-.27.48-.78.78-1.34.78h-2.66l.53-1h2.47l1.2-2h-1.3a.38.38 0 0 1 -.33-.54l.83-1.63c.25-.5.78-.83 1.36-.83z" fill-opacity=".5"/></g></svg>

<!-- by TradingView --><svg width="18" height="18" viewBox="0 0 18 18" xmlns="http://www.w3.org/2000/svg"><path fill="#F0F3FA" d="M0 0h18v18H0z"/><path d="m5.5 13 2.98-5h.94L10 7H5.08L4.5 8H7l-3 5h1.5Z" fill="#B80C1E" fill-opacity=".5"/><path d="M5.53 5H15l-.53 1H5l.53-1Z" fill="#B80C1E"/><path d="m14 7-.5 1h-2.04l-.6 1h1.32c.3 0 .47.3.34.55L11 12.22c-.27.48-.78.78-1.34.78H7l.53-1H10l1.2-2H9.9a.38.38 0 0 1-.33-.54l.83-1.63c.25-.5.78-.83 1.36-.83H14Z" fill="#B80C1E" fill-opacity=".5"/></svg>
